!! 00000] TT[00
!! NN
!!!OTL: Chong mi haozi
!!!ARE: Asia, China,ÿAnhui, Fanchang
!! Ethnic Group: Han
!! III, 562
!!!SCT: C0345
!!!YEM: Copyright 1995, estate of Helmut Schaffrath.
**kern
*ICvox
*Ivox
*M2/4
*k[f#c#]
*D:
{8ee
4dd
16ee
16dd
=1
8.b
16a
8f#
8r
=2
8a
8a
8b
8dd
=3
8.b
16a
8f#
8r}
=4
{8f#
4f#
16f#
16a
=5
8dd
16b
16a
8f#
8r
=6
8.f#
16a
8dd
16b
16a
=7
2f#}
=8
{8f#
8a
8f#
8e
=9
8.a
16d
4d}
=10
{8.d
16e
8d
8B
=11
4d
4r
=12
4r
4r}
=13
{4.dd
8ee
=14
4a
4r}
=15
{8.b
16a
8f#
8a
=16
4e
8e
8f#
=17
4a
16.b
32a
16b
16dd
=18
4a
4r}
==
!!!AGN: Haozi, Zongmi haozi. Yietiao dongzuo, Tiaojie jingli
!! Die Begleitung besteht aus den Rufen "Hei!" und einem "Sch",
!!    mit dem das Einatmen markiert wird.
!!    Wenig Verzierungen.
!!!ONB: ESAC (Essen Associative Code) Database: CHINA
!!!AMT: simple duple
!!!AIN: vox
!!!EED: Helmut Schaffrath
!!!EEV: 1.0
*-
